X:1
T:Auckland, 10.10.10.10
T:Auckland, 10.10.10.10
T:Frederick Charles Maker, 1876
T:Public Domain Courtesy of the Cyber Hymnal™
C:Frederick Charles Maker, 1876
Z:Public Domain
Z:Courtesy of the Cyber Hymnal™
%%score ( 1 2 ) 3
L:1/8
M:4/4
K:G
V:1 treble 
V:2 treble 
V:3 bass 
V:1
 [DG]2 | [EG]4 [CE]4 | [DG]6 [DG]2 | [EG]2 [EG]2 [FA]2 [FA]2 | [GB]6 [^DB]2 | [EB]4 [B,G]4 | %6
 [^DB]6 [FA]2 | [EG]2 E2 [EA]2 E2 | [^DF]6 [=DG]2 | [EG]4 [CE]4 | [B,G]6 [DA]2 | %11
 [DB]2 [DB]2 [Dc]2 [Dd]2 | [CE]6 [CE]2 | [EG]4 [DF]4 | [EG]6 [EG]2 | [DG]2 [DF]2 [CE]2 [DF]2 | %16
 [DG]6 |] %17
V:2
 x2 | x8 | x8 | x8 | x8 | x8 | x8 | x2 E2 E2 x2 | x8 | x8 | x8 | x8 | x8 | x8 | x8 | x8 | x6 |] %17
V:3
 [G,,B,]2 | [C,C]4 [C,G,]4 | [G,,B,]6 [G,B,]2 | [E,B,]2 [E,B,]2 [D,D]2 [D,D]2 | [G,D]6 [B,,B,]2 | %5
 [E,G,]4 [E,G,]4 | [B,,F,]6 [^D,B,]2 | [E,B,]2 [E,G,]2 [C,A,]2 [C,^A,]2 | [B,,B,]6 [B,,G,]2 | %9
 [C,G,]4 [C,G,]4 | [G,,G,]6 [D,F,]2 | [G,,G,]2 [G,,G,]2 [A,,F,]2 [B,,G,]2 | [C,G,]6 [C,G,]2 | %13
 [C,C]4 [C,G,]4 | [C,_B,]6 [^C,B,]2 | [D,A,]2 [D,A,]2 [D,C]2 [D,C]2 | [G,,B,]6 |] %17

